X: 313
T: Seven Stars
R: jig
M: 6/8
L: 1/8
K: Dmaj
|: "D"d2A A2F | "G"GAB "D/F#"A3 | "G"Bcd "D/F#"efg | "Em"fed "A"cBA |"D"d2A A2F | "G"GAB "D/F#"A2A | "G"Bcd "Em"efg| 
| "A"Adc "D"d3 :||: "A"e2A A2f | efg "D/A"f2f | "A"efg "D/A"fed |"A"cde A3 |"G"BGB "D/F#"AFA | "G"BGB "D/F#"AFA| 
| "G"Bcd "Em"efg | "A"Adc "D"d3 :|\
P:Last Time
"G"BGB "D"Az2 | "G"BGB "D"Az2 | "G"Bcd "Em"efg | "A"Adc "D"d3|]

%%newpage
%%textfont * 14
%%begintext justify
%%32 Bar Jigs
%%endtext
